!!!COM:	Martini, Johannes
!!!CDT:	~1440///-~1497//
!!!OPR:	Missa La Martinella
!!!ONM:	3
!!!OTL:	Credo
!!!AGN:	Mass; Credo
!!!SCT:	Mar1009c
!!!SCA:	Mar1009c
!!!voices:	4
**kern	**kern	**kern	**kern
*staff4	*staff3	*staff2	*staff1
*Ivox	*Ivox	*Ivox	*Ivox
*I"Bassus	*I"Tenor	*I"Contratenor	*I"Superius
*I'B	*I'T	*I'Ct	*I'S
*>[A,B,C]	*>[A,B,C]	*>[A,B,C]	*>[A,B,C]
*>A	*>A	*>A	*>A
*clefF4	*clefGv2	*clefGv2	*clefG2
*k[b-]	*k[b-]	*k[b-]	*k[b-]
*M2/1	*M2/1	*M2/1	*M2/1
*met(C)	*met(C)	*met(C)	*met(C)
!!section: Patrem omnipotentem
!!!OMD: Patrem omnipotentem
=1-	=1-	=1-	=1-
0G	0r	0r	0r
=2	=2	=2	=2
1F	0r	0r	0r
1G	.	.	.
=3	=3	=3	=3
0B-	0r	0r	0g
=4	=4	=4	=4
1A	0r	0r	1f
[1G	.	.	1g
=5	=5	=5	=5
2G\]	0r	0r	0b-
4F\	.	.	.
4E\	.	.	.
2D\	.	.	.
[2G\	.	.	.
=6	=6	=6	=6
2G\]	0r	0r	1a
2F\	.	.	.
4G\	.	.	[1g
4F\	.	.	.
4E\	.	.	.
4D\	.	.	.
=7	=7	=7	=7
2C/	0r	1r	2g/]
2.D\	.	.	4f/
.	.	.	4e/
.	.	2r	1d
4C/	.	.	.
2BB-/	.	[2G/	.
=8	=8	=8	=8
1AA	0r	2G/]	0r
.	.	2F#i/	.
2GG/	.	2G/	.
[2GG/	.	[2B-\	.
=9	=9	=9	=9
4GG/]	0r	2B-\]	0r
4AA/	.	.	.
4BB-/	.	4A/	.
4C/	.	4G/	.
2D\	.	2F/	.
2F\	.	2A/	.
=10	=10	=10	=10
2G\	0r	2B-\	2.d/
2B-\	.	4d\	.
.	.	4c\	4e/
4A\	.	2B-\	2f/
4G\	.	.	.
[2G\	.	2r	2g/
=11	=11	=11	=11
2G\]	0r	1A	2a/
2F#i\	.	.	2cc\
2G\	.	1G	2b-\
[2B-\	.	.	[2dd\
=12	=12	=12	=12
2B-\]	0r	0r	2dd\]
4A\	.	.	4cc\
4G\	.	.	4b-\
1F	.	.	2a/
.	.	.	[2cc\
=13	=13	=13	=13
1A	0r	0r	4cc\]
.	.	.	4b-\
.	.	.	2a/
2B-\	.	.	2g/
[2d\	.	.	2b-\
=14	=14	=14	=14
4d\]	0r	0r	4a/
4c\	.	.	4g/
2B-\	.	.	2.g/
1A	.	.	.
.	.	.	8f#i/L
.	.	.	8e/J
.	.	.	2f#i/
=15	=15	=15	=15
2G\	0r	1r	2g/
2.GG/	.	.	2.b-\
.	.	1B-	.
4AA/	.	.	4cc\
4BB-/	.	.	2dd\
4C/	.	.	.
=16	=16	=16	=16
2AA/	0r	2c\	2cc\
2GG/	.	1d	2.b-\
2BB-/	.	.	.
.	.	.	4a/
2C/	.	2e\	2g/
=17	=17	=17	=17
2D\	0r	2d\	2f/
2G\	.	2B-\	1b-
1F	.	1c	.
.	.	.	2a/
=18	=18	=18	=18
2BB-/	0r	1B-	2b-\
2.D\	.	.	2.f/
.	.	1F	.
4C/	.	.	4g/
2AA/	.	.	2a/
=19	=19	=19	=19
2GG/	0r	2G/	2b-\
2D\	.	2F/	2.a/
2E-i\	.	2B-\	.
.	.	.	4g/
2C/	.	2c\	[2g/
=20	=20	=20	=20
1D	0r	1A	2g/]
.	.	.	2f#i/
1GG	.	1G	[1g
=21	=21	=21	=21
2r	0r	2G/	2g/]
2GG/	.	1B-	1d
2BB-/	.	.	.
2C/	.	2A/	2c/
=22	=22	=22	=22
1E-i	0r	1G	2B-/
.	.	.	4A/
.	.	.	4G/
2D\	.	2F/	1A
2C/	.	[2c\	.
=23	=23	=23	=23
2.F\	0r	4c\]	1.a
.	.	4B-\	.
.	.	2.A/	.
4E\	.	.	.
2C/	.	.	.
.	.	4G/	.
[2D\	.	4F/	2a/
.	.	4E/	.
=24	=24	=24	=24
4D\]	0r	1F	1a
4C/	.	.	.
4BB-/	.	.	.
4AA/	.	.	.
2GG/	.	2G/	1b-
2G\	.	2B-\	.
=25	=25	=25	=25
2F\	[0A	2c\	1a
2.D\	.	2d\	.
.	.	2f\	2a/
4BB-/	.	.	.
2C/	.	2e\	2g/
=26	=26	=26	=26
1D	0A]	1d	1f
2r	.	2c\	2e/
2F\	.	2f\	[2a/
=27	=27	=27	=27
1.G	0B-	2.d\	2a/]
.	.	.	2g/
.	.	4c\	.
.	.	2d\	2.g/
2E-\	.	2e-i\	.
.	.	.	4f/
=28	=28	=28	=28
2F\	[0A	2c\	2a/
2.D\	.	2d\	2.f/
.	.	2D/	.
4C/	.	.	4d/
2AA/	.	2C/	[2e/
=29	=29	=29	=29
1.D	1A]	1F	4e/]
.	.	.	4d/
.	.	.	1d
.	1G	1E	.
2G\	.	.	2c#i/
=30	=30	=30	=30
2A\	0F	0D	0d
2D\	.	.	.
2.A\	.	.	.
4B-\	.	.	.
=31	=31	=31	=31
4c\	1E	1C	0r
4B-\	.	.	.
4A\	.	.	.
4G\	.	.	.
2.F\	[1A	4D/	.
.	.	4E/	.
.	.	4F/	.
4E\	.	4G/	.
=32	=32	=32	=32
4D\	1A]	4A/	2.a/
4C/	.	4B-\	.
2.F\	.	4c\	.
.	.	2d\	4b-\
.	1G	.	4cc\
8E\L	.	8c\L	4b-\
8D\J	.	8B-\J	.
2E\	.	2c\	4a/
.	.	.	4g/
=33	=33	=33	=33
2.D\	[0A	2.d\	2.f/
4C/	.	4e\	4e/
2D\	.	4f\	2d/
.	.	4d\	.
2AA/	.	8e\L	4c/
.	.	8d\	.
.	.	8c\	[4f/
.	.	8B-\J	.
=34	=34	=34	=34
1r	0A]	4A/	4f/]
.	.	2d\	8e/L
.	.	.	8d/J
.	.	.	2e/
.	.	4c#i\	.
2.D\	.	[1d	4d/
.	.	.	4e/
.	.	.	4f/
4E\	.	.	4g/
=35	=35	=35	=35
4F\	0r	1d]	4a/
4G\	.	.	4b-\
4A\	.	.	4cc\
2B-\	.	.	2dd\
.	.	1e	.
8A\L	.	.	8cc#i\L
8G\J	.	.	8bni\J
2A\	.	.	2cc#i\
=36	=36	=36	=36
2D\	0r	1d	2dd\
2.BB-/	.	.	2.d/
.	.	1r	.
4C/	.	.	4e/
4D\	.	.	4f/
4E\	.	.	4g/
=37	=37	=37	=37
2.F\	0r	2.D/	4a/
.	.	.	2b-\
4E\	.	4E/	8a/L
.	.	.	8g/J
2D\	.	4F/	2a/
.	.	4G/	.
2BB-/	.	4A/	[2d/
.	.	[4B-\	.
=38	=38	=38	=38
2D\	0r	4B-\]	2d/]
.	.	8A/L	.
.	.	8G/J	.
2AA/	.	2A/	2c/
[1D	.	2D/	2d/
.	.	2r	[2B-/
=39	=39	=39	=39
0D]	0D	2.B-\	4B-/]
.	.	.	4c/
.	.	.	4d/
.	.	4c\	4e/
.	.	4d\	2.f/
.	.	4e\	.
.	.	[2f\	.
.	.	.	4g/
=40	=40	=40	=40
1FF	1.F	4f\]	1a
.	.	4e\	.
.	.	2c\	.
2BB-/	.	2d\	2b-\
2C/	2E/	[2c\	[2a/
=41	=41	=41	=41
1D	1F	4c\]	4a/]
.	.	4A/	4g/
.	.	2B-\	2f/
1C	1G	1c	1e
=42	=42	=42	=42
1BB-	1B-	1F	1d
1FF	[1A	[1F	[1c
=43	=43	=43	=43
2FF/	2A/]	2F/]	2c/]
1.GG	2G/	2D/	4B-/
.	.	.	4A/
.	[1G	1D	1B-
=44	=44	=44	=44
2BB-/	1G]	0r	2b-\
2C/	.	.	4a/
.	.	.	4g/
1AA	1F#i	.	2a/
.	.	.	2cc\
=45	=45	=45	=45
2.GG/	0G	2.d\	2b-\
.	.	.	2.g/
4AA/	.	4d\	.
2BB-/	.	2d\	.
.	.	.	4f/
2C/	.	2c\	4e/
.	.	.	4d/
=46	=46	=46	=46
2.GG/	0r	2.B-\	0d
4AA/	.	4A/	.
4BB-/	.	2G/	.
4C/	.	.	.
2D\	.	2F/	.
=47	=47	=47	=47
1GG	0r	4G/	2.dd\
.	.	4A/	.
.	.	1B-	.
.	.	.	4dd\
2r	.	.	2dd\
2F\	.	2A/	2cc\
=48	=48	=48	=48
2.G\	0r	2B-\	2.b-\
.	.	2d\	.
4F\	.	.	4a/
2E\	.	2e\	2g/
2D\	.	[2f\	2f/
=49	=49	=49	=49
1BB-	0r	4f\]	4g/
.	.	4e\	4a/
.	.	2d\	1b-
1F	.	1c	.
.	.	.	2a/
=50	=50	=50	=50
0BB-	[0d	0B-	1.b-
.	.	.	4a/
.	.	.	4g/
=51	=51	=51	=51
1D	1d]	0A	1f
1F	1c	.	1a
=52	=52	=52	=52
0G	0B-	[0d	2b-\
.	.	.	2.g/
.	.	.	4f/
.	.	.	2g/
=53	=53	=53	=53
0D	0A	0d]	4a/
.	.	.	4g/
.	.	.	4f#i/
.	.	.	4e/
.	.	.	1f#i
=54	=54	=54	=54
0E-	0G	1.B-	0g
.	.	2c\	.
=55	=55	=55	=55
1D	1A	1d	1f
[1C	[1c	4G/	[1e
.	.	4F/	.
.	.	4E/	.
.	.	4D/	.
=56	=56	=56	=56
2C/]	1c]	2C/	2e/]
4BB-/	.	1F	2f/
4AA/	.	.	.
1GG	1B-	.	1g
.	.	2E/	.
=57	=57	=57	=57
1.FF	0c	1F	0a
.	.	2r	.
2F\	.	2A/	.
=58	=58	=58	=58
1G	0r	2B-\	1r
.	.	2.d\	.
1F	.	.	2r
.	.	8c\L	.
.	.	8B-\J	.
.	.	2c\	2a/
=59	=59	=59	=59
2E-i\	0r	2G/	2b-\
2D\	.	2.B-\	2.dd\
1F	.	.	.
.	.	8A/L	8cc\L
.	.	8G/J	8b-\J
.	.	2A/	2cc\
=60	=60	=60	=60
1E-i	0r	2B-\	2g/
.	.	2.G/	2.b-\
1D	.	.	.
.	.	8F/L	8a/L
.	.	8E/J	8g/J
.	.	2F/	2a/
=61	=61	=61	=61
1GG	0r	2G/	4b-\
.	.	.	4a/
.	.	2B-\	1g
1D	.	2.A/	.
.	.	.	2f/
.	.	4B-\	.
=62	=62	=62	=62
1.C	0G	1.c	2g/
.	.	.	1e
2C/	.	2c\	2e/
=63	=63	=63	=63
1C	1G	1c	2e/
.	.	.	2e/
[1BB-	[1B-	[1F	2.d/
.	.	.	4d/
=64	=64	=64	=64
1BB-]	1B-]	2F/]	2d/
.	.	2F/	2B-/
1FF	1A	1F	2c/
.	.	.	2A/
=65	=65	=65	=65
1GG	1G	1D	4B-/
.	.	.	4c/
.	.	.	1d
1AA	2F/	2r	.
.	2E/	2A/	2c#i/
=66	=66	=66	=66
2r	0D	2B-\	1d
2.BB-/	.	4G/	.
.	.	2B-\	.
.	.	.	2r
4C/	.	8A/L	.
.	.	8G/J	.
2D\	.	2F/	2a/
=67	=67	=67	=67
2GG/	0r	1G	2b-\
2.G\	.	.	4g/
.	.	.	2b-\
.	.	2r	.
4F\	.	.	8a/L
.	.	.	8g/J
2D\	.	2d\	2f/
=68	=68	=68	=68
1C	1r	2e-i\	2g/
.	.	4c\	4e/
.	.	2e-i\	2g/
1r	1G	.	.
.	.	8d\L	8f/L
.	.	8c\J	8e/J
.	.	4B-\	4d/
.	.	[4d\	[4f/
=69	=69	=69	=69
1r	1A	4d\]	4f/]
.	.	8c\L	8e/L
.	.	8B-\J	8d/J
.	.	2c\	2e/
1G	1B-	2d\	1d
.	.	2G/	.
=70	=70	=70	=70
1.E	1G	2.B-\	0g
.	.	4A/	.
.	1B-	2G/	.
2D\	.	2F/	.
=71	=71	=71	=71
1C	1c	2.E/	1a
.	.	4D/	.
1BB-	1d	1F	[1b-
=72	=72	=72	=72
0GG	0B-	1G	2b-\]
.	.	.	2a/
.	.	[1d	[1g
=73	=73	=73	=73
0D	0A	1d]	2g/]
.	.	.	2f#i/
.	.	1d	2.f#i/
.	.	.	4e/
=74	=74	=74	=74
0GGl	0Gl	0dl	0gl
!!LO:LB:i:g=z
=75||	=75||	=75||	=75||
*>B	*>B	*>B	*>B
*clefF4	*clefGv2	*clefGv2	*clefG2
*k[b-]	*k[b-]	*k[b-]	*k[b-]
*M2/1	*M2/1	*M2/1	*M2/1
*met(C|)	*met(C|)	*met(C|)	*met(C|)
!!section: Et incarnatus est
!!!OMD: Et incarnatus est
0r	0r	0r	0d
=76	=76	=76	=76
0r	0r	0r	1e
.	.	.	1e
=77	=77	=77	=77
0r	0r	0r	1f
.	.	.	1f
=78	=78	=78	=78
0r	0r	0G	1g
.	.	.	2d/
.	.	.	[2g/
=79	=79	=79	=79
0r	0r	1A	4g/]
.	.	.	4f/
.	.	.	4e/
.	.	.	4d/
.	.	1A	1e
=80	=80	=80	=80
0r	0r	1B-	2d/
.	.	.	2.g/
.	.	1B-	.
.	.	.	4a/
.	.	.	4b-\
.	.	.	4cc\
=81	=81	=81	=81
0r	0r	1c	4a/
.	.	.	4g/
.	.	.	2cc\
.	.	2G/	2b-\
.	.	[2c\	[2a/
=82	=82	=82	=82
2r	0r	4c\]	4a/]
.	.	4B-\	4g/
2GG/	.	4A/	1g
.	.	4G/	.
1D	.	1A	.
.	.	.	2f#i/
=83	=83	=83	=83
2BB-/	0r	2r	1g
1C	.	2G/	.
.	.	2A/	1r
2D\	.	2B-\	.
=84	=84	=84	=84
2E\	0r	2c\	0r
2F\	.	2A/	.
2D\	.	2.B-\	.
[2G\	.	.	.
.	.	4c\	.
=85	=85	=85	=85
4G\]	0r	4d\	2r
4F\	.	4e\	.
2D\	.	2.f\	2d/
2C/	.	.	2e/
.	.	4e\	.
2D\	.	[2d\	2f/
=86	=86	=86	=86
1E	0r	2d\]	2g/
.	.	2c#i\	2e/
[1D	.	1d	2.f/
.	.	.	4g/
=87	=87	=87	=87
2D\]	0A	2d\	4a/
.	.	.	4b-\
4C/	.	1e	2.cc\
4BB-/	.	.	.
2AA/	.	.	.
.	.	.	4b-\
2FF/	.	2f\	[2a/
=88	=88	=88	=88
2GG/	1B-	1d	2a/]
2BB-/	.	.	2g/
2C/	[1A	2e\	1a
[2D\	.	[2f\	.
=89	=89	=89	=89
4D\]	2A/]	2f\]	0r
4BB-/	.	.	.
2C/	2G/	2e\	.
2.D\	1F	1d	.
4C/	.	.	.
=90	=90	=90	=90
2AA/	2E/	1c	0r
2C/	1A	.	.
1BB-	.	1r	.
.	2G/	.	.
=91	=91	=91	=91
2.F\	0A	2.c\	[0a
4G\	.	4B-\	.
2A\	.	2c\	.
[2D\	.	2d\	.
=92	=92	=92	=92
2D\]	0r	2f\	0a]
2C/	.	4e\	.
.	.	4d\	.
2AA/	.	2c\	.
2D\	.	[2d\	.
=93	=93	=93	=93
0GG	0r	4d\]	0b-
.	.	4c\	.
.	.	4B-\	.
.	.	4A/	.
.	.	1G	.
=94	=94	=94	=94
0r	1D	2r	0a
.	.	2F/	.
.	2.F/	2.A/	.
.	4E/	4G/	.
=95	=95	=95	=95
[0D	2F/	2A/	0d
.	2G/	4B-\	.
.	.	4c\	.
.	2B-\	2.d\	.
.	2A/	.	.
.	.	4c\	.
=96	=96	=96	=96
0D]	2G/	4B-\	0r
.	.	4A/	.
.	1G	2B-\	.
.	.	1A	.
.	2F#i/	.	.
=97	=97	=97	=97
0E-i	1G	0G	1r
.	1r	.	[1g
=98	=98	=98	=98
0D	0r	0A	2g/]
.	.	.	4f#i/
.	.	.	4e/
.	.	.	1f#i
=99	=99	=99	=99
0GG	1.d	2r	2g/
.	.	2.G/	1b-
.	.	4F/	.
.	2c\	4E/	4a/
.	.	4D/	4g/
=100	=100	=100	=100
2r	1B-	1G	2g/
1G	.	.	2.dd\
.	1A	1D	.
.	.	.	4cc\
2F\	.	.	2a/
=101	=101	=101	=101
2G\	1G	2r	2b-\
2B-\	.	1d	1g
1A	2A/	.	.
.	[2c\	2c\	2f/
=102	=102	=102	=102
1G	2c\]	1d	0g
.	2Bni\	.	.
1C	1c	1e	.
=103	=103	=103	=103
2.D\	0r	2.d\	[0f
4E\	.	4c\	.
2F\	.	2A/	.
[2BB-/	.	[2B-\	.
=104	=104	=104	=104
4BB-/]	0r	2B-\]	0f]
4C/	.	.	.
4D\	.	4A/	.
4E-i\	.	4G/	.
1D	.	1A	.
=105	=105	=105	=105
2r	1G	2G/	1g
2.B-\	.	2.E-/	.
.	2G/	.	1r
4A\	.	4F/	.
[2G\	[2B-\	2G/	.
=106	=106	=106	=106
2G\]	2B-\]	1D	1r
2F\	2A/	.	.
2G\	4G/	1d	2r
.	4F/	.	.
[2GG/	2E/	.	[2b-\
=107	=107	=107	=107
4GG/]	1D	2r	4b-\]
4AA/	.	.	4a/
2BB-/	.	2G/	1g
2C/	1r	2A/	.
2D\	.	2B-\	2f/
=108	=108	=108	=108
1GG	2r	2G/	1g
.	2G/	2B-\	.
1r	2A/	2c\	1r
.	2B-\	2d\	.
=109	=109	=109	=109
0r	2G/	1B-	2r
.	2B-\	.	2g/
.	2c\	2A/	2a/
.	2d\	[2G/	2b-\
=110	=110	=110	=110
2r	1B-	4G/]	2g/
.	.	4D/	.
2G\	.	2G/	2b-\
2A\	1A	2F/	2cc\
2B-\	.	2D/	2dd\
=111	=111	=111	=111
2G\	0r	2E-/	1b-
2B-\	.	2G/	.
2c\	.	1F	2a/
2d\	.	.	[2a/
=112	=112	=112	=112
1B-	0r	1G	2a/]
.	.	.	2g/
1A	.	1D	1a
=113	=113	=113	=113
1D	0r	2r	0r
.	.	2.d\	.
1F	.	.	.
.	.	4c\	.
.	.	2A/	.
=114	=114	=114	=114
1E	0r	2G/	0r
.	.	2c\	.
1D	.	2F/	.
.	.	[2B-\	.
=115	=115	=115	=115
0C	0r	2B-\]	0r
.	.	4A/	.
.	.	4G/	.
.	.	1A	.
=116	=116	=116	=116
1.BB-	0r	1d	2r
.	.	.	2.d/
.	.	1f	.
.	.	.	4c/
2FF/	.	.	2A/
=117	=117	=117	=117
1C	0r	1e	2G/
.	.	.	2c/
1D	.	1d	2F/
.	.	.	[2B-/
=118	=118	=118	=118
1E	0r	0c	2B-/]
.	.	.	4A/
.	.	.	4G/
1F	.	.	1A
=119	=119	=119	=119
1BB-	0r	2r	1d
.	.	2.B-\	.
1D	.	.	1f
.	.	4A/	.
.	.	2F/	.
=120	=120	=120	=120
1C	0r	2G/	1e
.	.	2A/	.
1BB-	.	2D/	1d
.	.	[2G/	.
=121	=121	=121	=121
0AA	0r	2G/]	0a
.	.	4F#i/	.
.	.	4E/	.
.	.	1F#i	.
=122	=122	=122	=122
2GG/	0r	2G/	1b-
2G\	.	2B-\	.
2F\	.	2c\	1a
[2D\	.	2d\	.
=123	=123	=123	=123
2D\]	0A	2.A/	2f/
2C/	.	.	1e
.	.	4B-\	.
2E\	.	2c\	.
2F\	.	[2d\	[2a/
=124	=124	=124	=124
1G	1B-	2d\]	2a/]
.	.	2e\	2g/
2D\	[1A	2.f\	1a
[2F\	.	.	.
.	.	4e\	.
=125	=125	=125	=125
2F\]	2A/]	2.c\	0r
2E\	2G/	.	.
.	.	4B-\	.
2.D\	1F	1d	.
4C/	.	.	.
=126	=126	=126	=126
2AA/	2E/	1r	1r
2C/	1A	.	.
1BB-	.	2r	1d
.	2G/	2B-\	.
=127	=127	=127	=127
2AA/	0A	2c\	2.f/
1D	.	1d	.
.	.	.	4e/
.	.	.	2f/
2C/	.	2e-i\	2g/
=128	=128	=128	=128
2BB-/	0r	2d\	2b-\
2C/	.	2.c\	2.a/
2D\	.	.	.
.	.	4B-\	4g/
2E-i\	.	4A/	[2g/
.	.	4G/	.
=129	=129	=129	=129
1D	0r	1A	2g/]
.	.	.	2f#i/
1GG	.	1G	2g/
.	.	.	2b-\
=130	=130	=130	=130
2r	1D	2.F/	1a
1D	.	.	.
.	.	4G/	.
.	2.F/	2A/	1d
[2BB-/	.	[2B-\	.
.	4E/	.	.
=131	=131	=131	=131
2BB-/]	2F/	4B-\]	1.dd
.	.	4c\	.
1GG	2G/	2.d\	.
.	2B-\	.	.
.	.	4B-\	.
2AA/	2A/	2c\	2cc\
=132	=132	=132	=132
2BB-/	2G/	1d	1b-
2GG/	1G	.	.
1D	.	2r	1a
.	2F#i/	[2d\	.
=133	=133	=133	=133
2GG/	1G	2d\]	1g
2G\	.	2B-\	.
2F\	1r	1c	2a/
2A\	.	.	[2cc\
=134	=134	=134	=134
1G	0r	1d	2cc\]
.	.	.	2b-\
2C/	.	1c	2cc\
2F\	.	.	2a/
=135	=135	=135	=135
2G\	1.d	0r	2.b-\
2.B-\	.	.	.
.	.	.	4a/
.	.	.	1f
4A\	.	.	.
[2A\	2c\	.	.
=136	=136	=136	=136
4A\]	1B-	1.d	1g
4G\	.	.	.
1G	.	.	.
.	1A	.	[1a
2F\	.	2c\	.
=137	=137	=137	=137
1G	1G	1B-	2a/]
.	.	.	1g
1r	2A/	1A	.
.	[2c\	.	2f#i/
=138	=138	=138	=138
2r	2c\]	1G	1g
2G\	2B-\	.	.
2F\	1c	2A/	1r
2E\	.	[2c\	.
=139	=139	=139	=139
1D	0r	2c\]	1r
.	.	2Bni\	.
[1C	.	1c	1g
=140	=140	=140	=140
2C/]	0r	1e	2g/
4BB-/	.	.	1b-
4AA/	.	.	.
1GG	.	1d	.
.	.	.	2a/
=141	=141	=141	=141
1r	1G	1.B-	2g/
.	.	.	4f/
.	.	.	4e/
2r	2G/	.	1d
[2G\	[2B-\	2G/	.
=142	=142	=142	=142
2G\]	2B-\]	2B-\	2g/
2F\	2A/	2c\	2a/
2G\	4G/	4B-\	2b-\
.	4F/	4c\	.
[2B-\	2E/	4d\	2g/
.	.	4e\	.
=143	=143	=143	=143
2B-\]	1D	1f	2b-\
2A\	.	.	2cc\
2B-\	1r	1d	2dd\
[2G\	.	.	[2b-\
=144	=144	=144	=144
4G\]	2r	2B-\	4b-\]
4F\	.	.	4a/
2E\	2G/	2c\	2g/
2D\	2A/	[1d	2f/
2GG/	2B-\	.	[2g/
=145	=145	=145	=145
1G	2G/	2d\]	4g/]
.	.	.	4f/
.	2B-\	2e\	2.g/
2F\	2c\	1f	.
.	.	.	4a/
2D\	2d\	.	[2b-\
=146	=146	=146	=146
1G	1B-	0d	4b-\]
.	.	.	4a/
.	.	.	1g
1D	1A	.	.
.	.	.	2f#i/
=147	=147	=147	=147
1GG	1G	1d	1g
1r	1r	1r	1r
=148	=148	=148	=148
0GG;	0G;	0d;	0b-;
=149	=149	=149	=149
0D;	0F;	0d;	0a;
=150	=150	=150	=150
0E-i;	0G;	0B-;	0g;
=151	=151	=151	=151
0D;	0B-;	0d;	0f;
=152	=152	=152	=152
0C;	0c;	0G;	0e;
=153	=153	=153	=153
0GGl	0B-l	0Gl	0dl
!!LO:LB:i:g=z
=154||	=154||	=154||	=154||
*>C	*>C	*>C	*>C
*clefF4	*clefGv2	*clefGv2	*clefG2
*k[b-]	*k[b-]	*k[b-]	*k[b-]
*M2/1	*M2/1	*M2/1	*M2/1
*met(C|)	*met(C|)	*met(C|)	*met(C|)
!!section: Crucifixus
!!!OMD: Crucifixus
0r	0r	1D	0r
.	.	[1F	.
=155	=155	=155	=155
1D	0r	2F/]	0r
.	.	2G/	.
1F	.	1A	.
=156	=156	=156	=156
1G	0r	1B-	0r
1A	.	1A	.
=157	=157	=157	=157
1B-	0r	2G/	0r
.	.	1d	.
1A	.	.	.
.	.	2c\	.
=158	=158	=158	=158
2G\	0r	2B-\	0r
1d	.	4A/	.
.	.	4G/	.
.	.	2F/	.
2c\	.	2A/	.
=159	=159	=159	=159
2B-\	0r	2G/	0r
4A\	.	2B-\	.
4G\	.	.	.
2.F\	.	2A/	.
.	.	[2c\	.
4E\	.	.	.
=160	=160	=160	=160
2F\	0r	4c\]	0r
.	.	4B-\	.
2D\	.	1B-	.
1C	.	.	.
.	.	2A/	.
=161	=161	=161	=161
1.BB-	0r	2B-\	1b-
.	.	1d	.
.	.	.	2b-\
2C/	.	2c\	[2a/
=162	=162	=162	=162
2D\	0r	2B-\	4a/]
.	.	.	4g/
2E-i\	.	2G/	1g
1D	.	1A	.
.	.	.	2f#i/
=163	=163	=163	=163
2r	0r	1B-	1g
1GG	.	.	.
.	.	2B-\	1r
2FF/	.	[2A/	.
=164	=164	=164	=164
2GG/	0r	4A/]	0r
.	.	4G/	.
2BB-/	.	1G	.
1AA	.	.	.
.	.	2F#i/	.
=165	=165	=165	=165
2GG/	0r	2G/	2.dd\
2G\	.	2B-\	.
.	.	.	4b-\
2F\	.	2A/	2cc\
2G\	.	[2d\	[2b-\
=166	=166	=166	=166
1E	0r	4d\]	4b-\]
.	.	4B-\	4a/
.	.	2c\	2g/
2D\	.	2d\	2f/
2G\	.	2B-\	[2b-\
=167	=167	=167	=167
1F	0r	1c	2b-\]
.	.	.	2a/
1BB-	.	2B-\	1b-
.	.	2d\	.
=168	=168	=168	=168
2C/	0r	2c\	0r
2D\	.	2.B-\	.
2E-i\	.	.	.
.	.	4A/	.
2D\	.	2G/	.
=169	=169	=169	=169
2BB-/	0r	2F/	0r
2D\	.	1B-	.
1C	.	.	.
.	.	2A/	.
=170	=170	=170	=170
2BB-/	0r	1B-	1f
1D	.	.	.
.	.	1r	1g
4C/	.	.	.
4BB-/	.	.	.
=171	=171	=171	=171
2AA/	0r	1F	2.a/
2D\	.	.	.
.	.	.	8g/L
.	.	.	8a/J
2GG/	.	2G/	2b-\
2D\	.	2F/	[2a/
=172	=172	=172	=172
2E-i\	0r	2B-\	4a/]
.	.	.	4g/
2C/	.	2c\	1g
1D	.	1A	.
.	.	.	2f#i/
=173	=173	=173	=173
2r	0r	2G/	1g
1G	.	1B-	.
.	.	.	1r
2D\	.	[2A/	.
=174	=174	=174	=174
2F\	[0d	2A/]	0r
2G\	.	1G	.
1D	.	.	.
.	.	2F#i/	.
=175	=175	=175	=175
1GG	0d]	1G	2g/
.	.	.	1b-
2.D\	.	1F	.
.	.	.	[2a/
4E\	.	.	.
=176	=176	=176	=176
2F\	0c	2A/	2a/]
2G\	.	2B-\	1g
1A	.	1c	.
.	.	.	2f#i/
=177	=177	=177	=177
0G	[0B-	0d	0g
=178	=178	=178	=178
1r	1B-]	1f	1b-
1E-i	1G	1g	1b-
=179	=179	=179	=179
1C	0A	1e	1cc
1C	.	1e	1cc
=180	=180	=180	=180
1BB-	[0B-	1d	1f
1E-i	.	1G	1g
=181	=181	=181	=181
2D\	0B-]	1r	2f/
1E-i	.	.	1g
.	.	1G	.
4D\	.	.	4f/
4C/	.	.	4e/
=182	=182	=182	=182
2BB-/	0r	1B-	1d
2B-\	.	.	.
2A\	.	2c\	2c/
[2B-\	.	2B-\	[2d/
=183	=183	=183	=183
2B-\]	0r	2G/	2d/]
4A\	.	4A/	4c/
4G\	.	4B-\	4B-/
1F	.	2.c\	1A
.	.	4d\	.
=184	=184	=184	=184
1r	[0G	1e-i	1G
1GG	.	1d	2r
.	.	.	[2g/
=185	=185	=185	=185
1BB-	0G]	1D	2g/]
.	.	.	2f/
1C	.	1E	2.e/
.	.	.	4d/
=186	=186	=186	=186
0AA	0F	0C	2f/
.	.	.	2g/
.	.	.	1a
=187	=187	=187	=187
1GG	0G	1D	1b-
1C	.	1E	1cc
=188	=188	=188	=188
1BB-	0B-	1F	2dd\
.	.	.	2.b-\
1GG	.	1G	.
.	.	.	4a/
.	.	.	[2g/
=189	=189	=189	=189
0D	0A	1r	2g/]
.	.	.	4f#i/
.	.	.	4e/
.	.	1D	1f#i
=190	=190	=190	=190
1r	[0G	1E	0g
1GG	.	2D/	.
.	.	[2G/	.
=191	=191	=191	=191
1BB-	1G]	4G/]	1d
.	.	4A/	.
.	.	2B-\	.
1C	1E	2G/	1e
.	.	[2c\	.
=192	=192	=192	=192
0AA	0F	4c\]	1c
.	.	4B-\	.
.	.	4A/	.
.	.	4G/	.
.	.	2F/	1A
.	.	2f\	.
=193	=193	=193	=193
1GG	0G	2e-i\	2B-/
.	.	2d\	1d
1C	.	1e-i	.
.	.	.	2c/
=194	=194	=194	=194
1BB-	0B-	1d	0d
1GG	.	2r	.
.	.	[2G/	.
=195	=195	=195	=195
0D	0A	2G/]	1d
.	.	4F#i/	.
.	.	4E/	.
.	.	1F#i	1r
=196	=196	=196	=196
0E-i	0G	2G/	2r
.	.	1B-	1g
.	.	4A/	4f/
.	.	4G/	4e/
=197	=197	=197	=197
1D	[0d	1A	1f
1G	.	2B-\	2g/
.	.	[2G/	[2b-\
=198	=198	=198	=198
1B-	1d]	2G/]	2b-\]
.	.	2d\	4a/
.	.	.	4g/
1A	1c	2e\	1a
.	.	2f\	.
=199	=199	=199	=199
1G	1B-	4g\	2r
.	.	4f\	.
.	.	4e\	1dd
.	.	4d\	.
1r	1A	1e	.
.	.	.	2cc\
=200	=200	=200	=200
0G	0B-	0d	2dd\
.	.	.	2.g/
.	.	.	4a/
.	.	.	2b-\
=201	=201	=201	=201
0E	0G	1r	2cc\
.	.	.	2.b-\
.	.	1G	.
.	.	.	4a/
.	.	.	2g/
=202	=202	=202	=202
[0D	[0d	1A	1f
.	.	1F	2d/
.	.	.	[2f/
=203	=203	=203	=203
1D]	1d]	1f	4f/]
.	.	.	4g/
.	.	.	2a/
1G	1B-	1d	2g/
.	.	.	2b-\
=204	=204	=204	=204
0F	0c	0f	2a/
.	.	.	2.cc\
.	.	.	4b-\
.	.	.	[2a/
=205	=205	=205	=205
0G	0B-	[0d	2a/]
.	.	.	4g/
.	.	.	4f/
.	.	.	1g
=206	=206	=206	=206
2.D\	[0A	1d]	1a
4C/	.	.	.
2.AA/	.	1c	[1cc
4BB-/	.	.	.
=207	=207	=207	=207
2C/	0A]	1A	2cc\]
2.D\	.	.	2b-\
.	.	[1d	1a
4E\	.	.	.
2F\	.	.	.
=208	=208	=208	=208
2G\	0r	1d]	2g/
2B-\	.	.	1g
1A	.	1c	.
.	.	.	2f#i/
=209	=209	=209	=209
1G	0r	0d	2g/
.	.	.	4f/
.	.	.	4e/
2B-\	.	.	2d/
[2A\	.	.	[2f/
=210	=210	=210	=210
4A\]	0r	0r	4f/]
4G\	.	.	4e/
2F\	.	.	1d
1E	.	.	.
.	.	.	2c#i/
=211	=211	=211	=211
2D\	0r	1D	1d
1F	.	.	.
.	.	2.F/	1r
2BB-/	.	.	.
.	.	4E/	.
=212	=212	=212	=212
2AA/	0r	2F/	0r
2GG/	.	2G/	.
1D	.	2B-\	.
.	.	2A/	.
=213	=213	=213	=213
2C/	0r	2G/	0r
2BB-/	.	1G	.
1AA	.	.	.
.	.	2F#i/	.
=214	=214	=214	=214
2GG/	0r	2G/	0b-
2.GG/	.	2.B-\	.
4AA/	.	4c\	.
2BB-/	.	2d\	.
=215	=215	=215	=215
2C/	0r	2e\	0a
2.D\	.	2.f\	.
4E\	.	4e\	.
2F\	.	4d\	.
.	.	4c\	.
=216	=216	=216	=216
2G\	0r	2e\	[0g
2.B-\	.	2.d\	.
4A\	.	4c\	.
[2G\	.	4B-\	.
.	.	4A/	.
=217	=217	=217	=217
4G\]	0r	2G/	0g]
4F\	.	.	.
4E\	.	1d	.
4D\	.	.	.
1E	.	.	.
.	.	2c#i\	.
=218	=218	=218	=218
1.D	0d	1d	[0f
.	.	1B-	.
2E\	.	.	.
=219	=219	=219	=219
1F	1c	1A	1f]
1G	[1B-	1B-	1d
=220	=220	=220	=220
0F	2B-\]	0c	0f
.	2G/	.	.
.	1A	.	.
=221	=221	=221	=221
1BB-	0B-	1B-	1d
1E-i	.	1G	[1g
=222	=222	=222	=222
0D	0r	0A	2g/]
.	.	.	4f#i/
.	.	.	4e/
.	.	.	1f#i
=223	=223	=223	=223
1GG	0G	2G/	2g/
.	.	2D/	1b-
1r	.	1E	.
.	.	.	4a/
.	.	.	4g/
=224	=224	=224	=224
2r	1F	1D	1a
2A\	.	.	.
2B-\	1G	[1d	1g
[2G\	.	.	.
=225	=225	=225	=225
4G\]	1B-	2d\]	0r
4F\	.	.	.
2G\	.	2B-\	.
2A\	1A	2c\	.
2F\	.	2A/	.
=226	=226	=226	=226
2G\	1.G	2.B-\	0r
2GG/	.	.	.
.	.	4c\	.
2BB-/	.	2d\	.
2C/	2E/	2G/	.
=227	=227	=227	=227
1AA	1F	2A/	2r
.	.	2c\	2a/
2GG/	1G	2B-\	2b-\
2C/	.	2c\	[2g/
=228	=228	=228	=228
2BB-/	1B-	1d	4g/]
.	.	.	4f/
2GG/	.	.	2g/
1D	1A	2r	2a/
.	.	2A/	2f#i/
=229	=229	=229	=229
1GG	1G	2B-\	1g
.	.	2.G/	.
1BB-	[1d	.	1r
.	.	4F/	.
.	.	2G/	.
=230	=230	=230	=230
1AA	2d\]	2A/	1r
.	2c\	2F/	.
2GG/	2B-\	2G/	1d
[2D\	2A/	[2F/	.
=231	=231	=231	=231
2D\]	1B-	2F/]	1d
2BB-/	.	2D/	.
2.C/	1G	2E/	1c
.	.	2F/	.
4BB-/	.	.	.
=232	=232	=232	=232
1GG	1.d	4G/	1B-
.	.	4A/	.
.	.	4B-\	.
.	.	4c\	.
1G	.	2d\	2r
.	2B-\	2e\	[2b-\
=233	=233	=233	=233
1F	1c	1f	2b-\]
.	.	.	2a/
1G	1B-	1e	2b-\
.	.	.	2g/
=234	=234	=234	=234
0D	0A	0d	4a/
.	.	.	4g/
.	.	.	4f#i/
.	.	.	4e/
.	.	.	1f#i
=235	=235	=235	=235
*	*M2/1	*	*
*	*met(C|3)	*	*
*	*rscale:3/2	*	*
1.E-	0r	1.G	[0g
2C/	.	[2c\	.
=236	=236	=236	=236
0C	0r	2c\]	0g]
.	.	4B-\	.
.	.	4A/	.
.	.	1c	.
=237	=237	=237	=237
1.D	0r	2B-\	0r
.	.	2A/	.
.	.	2.B-\	.
[2G\	.	.	.
.	.	4c\	.
=238	=238	=238	=238
2G\]	0r	4d\	0r
.	.	4e-i\	.
4F\	.	1d	.
4E\	.	.	.
1G	.	.	.
.	.	4c\	.
.	.	4B-\	.
=239	=239	=239	=239
2F\	0r	2A/	0r
2E\	.	2G/	.
2.F\	.	2A/	.
.	.	[2c\	.
4G\	.	.	.
=240	=240	=240	=240
4A\	0r	4c\]	1r
4B-\	.	4d\	.
1A	.	4e\	.
.	.	4f\	.
.	.	2e\	2r
4G\	.	[2d\	2d/
4F\	.	.	.
=241	=241	=241	=241
1E	0r	2d\]	2e/
.	.	2c#i\	2g/
2D\	.	1d	2f/
[2G\	.	.	[2b-\
=242	=242	=242	=242
4G\]	0r	1.G	4b-\]
4F\	.	.	4a/
2.E\	.	.	2.g/
4D\	.	.	4f/
2C/	.	2A/	2e/
=243	=243	=243	=243
2BB-/	0r	1B-	2d/
2E-i\	.	.	2g/
2C/	.	1c	2e/
[2F\	.	.	[2a/
=244	=244	=244	=244
4F\]	0r	0A	4a/]
4E\	.	.	4g/
4D\	.	.	4f#i/
4C/	.	.	4e/
1D	.	.	1f#i
=245	=245	=245	=245
1GG	0r	0G	1.g
[1G	.	.	.
.	.	.	2f/
=246	=246	=246	=246
2G\]	0r	0r	2.d/
2F\	.	.	.
.	.	.	4e/
2D\	.	.	2f/
2C/	.	.	[2e/
=247	=247	=247	=247
2F\	0r	0r	4e/]
.	.	.	4d/
2G\	.	.	1d
1E	.	.	.
.	.	.	2c#i/
=248	=248	=248	=248
1D	0r	1r	1d
1F	.	1D	2r
.	.	.	[2d/
=249	=249	=249	=249
2G\	0r	1G	2d/]
2E\	.	.	2e/
1D	.	2A/	2f/
.	.	2B-\	2d/
=250	=250	=250	=250
2E\	0r	2G/	1g
1C	.	1c	.
.	.	.	2e/
[2F\	.	2A/	2a/
=251	=251	=251	=251
2F\]	0r	2d\	2f/
2G\	.	2B-\	1b-
1E-	.	1e-	.
.	.	.	2g/
=252	=252	=252	=252
2F\	0r	2c\	2a/
2BB-/	.	2d\	2b-\
2r	.	2e\	2cc\
[2B-\	.	2f\	2f/
=253	=253	=253	=253
2B-\]	0r	2B-\	2g/
2A\	.	2c\	2a/
2G\	.	2d\	2b-\
2A\	.	[2c\	[2a/
=254	=254	=254	=254
2F\	0r	2c\]	4a/]
.	.	.	4g/
2G\	.	2B-\	1g
1D	.	1A	.
.	.	.	2f#i/
*	*rscale:1	*	*
=255	=255	=255	=255
*M3/1	*M3/1	*M3/1	*M3/1
*met(C|3)	*met()	*met(C|3)	*met(C|3)
!!primary-mensuration: met(C|3)
0GG	[0.d	0.G	0g
[1BB-	.	.	1g
=256	=256	=256	=256
1BB-]	1d]	1r	1f
0C	0c	1r	0e
.	.	1C	.
=257	=257	=257	=257
0GG	0.B-	1D	1d
.	.	1E	1B-
[1BB-	.	1D	[1d
=258	=258	=258	=258
1BB-]	1G	0G	1d]
0AA	0A	.	1r
.	.	1F#i	1c
=259	=259	=259	=259
0.GG	[0.B-	[0.G	1d
.	.	.	1e
.	.	.	1d
=260	=260	=260	=260
0.r	1B-]	1G]	0g
.	0A	0d	.
.	.	.	1f#i
=261	=261	=261	=261
0G	0.r	1.B-	1g
.	.	.	1e
.	.	2G/	.
1F	.	2A/	1d
.	.	2B-\	.
=262	=262	=262	=262
1E	0.r	0c	1e
0D	.	.	1.f
.	.	1B-	.
.	.	.	2d/
=263	=263	=263	=263
1C	[0.G	1c	1e
1BB-	.	1d	1.d
[1GG	.	1B-	.
.	.	.	2c/
=264	=264	=264	=264
1GG]	1G]	1.d	1B-
0D	0F	.	0A
.	.	2c\	.
.	.	1A	.
=265	=265	=265	=265
[0.GG	0G	1B-	0G
.	.	1.G	.
.	[1B-	.	1r
.	.	2F/	.
=266	=266	=266	=266
1GG]	1B-]	2D/	1g
.	.	2E/	.
0FF	0A	1.F	1a
.	.	.	1cc
.	.	2E/	.
=267	=267	=267	=267
1GG	0.G	1D	1b-
1C	.	1E	1cc
1BB-	.	1D	1dd
=268	=268	=268	=268
1C	1E	1G	1.cc
1AA	0F	0A	.
.	.	.	2b-\
1D	.	.	1a
=269	=269	=269	=269
1GG	0G	0.B-	1g
1.G	.	.	1.b-
.	[1B-	.	.
2F\	.	.	2a/
=270	=270	=270	=270
1G	1B-]	0.d	0g
0D	0A	.	.
.	.	.	1f#i
=271	=271	=271	=271
0E-i	0G	1B-	0g
.	.	1G	.
1D	[1d	1A	1f
=272	=272	=272	=272
0BB-	1d]	0B-	1d
.	0c	.	1.f
1FF	.	1A	.
.	.	.	2e/
=273	=273	=273	=273
1BB-	1B-	1F	1d
1C	1A	1E	1c
1GG	[1B-	1G	1B-
=274	=274	=274	=274
0G	1B-]	1.B-	0d
.	0G	.	.
.	.	2A/	.
1E	.	1G	1e
=275	=275	=275	=275
0D	0.d	0A	0f
1GG	.	1G	[1g
=276	=276	=276	=276
1BB-	1B-	1.G	1g]
0AA	0c	.	0a
.	.	2E/	.
.	.	1F#i	.
=277	=277	=277	=277
1GG	0B-	0G	0d
1BB-	.	.	.
1C	[1A	1r	1e
=278	=278	=278	=278
1.D	0.A]	1.d	1.f
2AA/	.	2c\	2e/
1D	.	1A	1f
=279	=279	=279	=279
1GG	0.r	1G	1g
1G	.	1.B-	1d
1D	.	.	[1f
.	.	2A/	.
=280	=280	=280	=280
1F	0.r	0d	1f]
1G	.	.	0e
1A	.	1c#i	.
=281	=281	=281	=281
0D	0.r	2d\	1d
.	.	2c\	.
.	.	2B-\	1r
.	.	2A/	.
1E	.	1G	1g
=282	=282	=282	=282
1D	0.r	1F	1a
1BB-	.	1D	1b-
1C	.	2E/	1g
.	.	2F/	.
=283	=283	=283	=283
1GG	0.r	1G	1b-
1r	.	1A	1cc
1r	.	1B-	1dd
=284	=284	=284	=284
0G	0.r	1G	0b-
.	.	1B-	.
[1F	.	1c	1a
=285	=285	=285	=285
1F]	0.r	1d	0a
0G	.	0B-	.
.	.	.	1g
=286	=286	=286	=286
1.D	0.r	0A	[0.a
2E\	.	.	.
1F	.	1r	.
=287	=287	=287	=287
1D	0.r	0d	0.a]
1.F	.	.	.
.	.	1c	.
2E\	.	.	.
=288	=288	=288	=288
1D	0.r	1.B-	0.r
0C	.	.	.
.	.	2G/	.
.	.	1A	.
=289	=289	=289	=289
1BB-	0d	1B-	0.r
1D	.	1F	.
1E-i	1c	1G	.
=290	=290	=290	=290
1D	1.B-	0F	0.r
0C	.	.	.
.	2G/	.	.
.	1A	1E	.
=291	=291	=291	=291
0BB-	0.B-	1F	0dd
.	.	1.f	.
1r	.	.	1cc
.	.	2e\	.
=292	=292	=292	=292
1G	0.r	0d	1.b-
1B-	.	.	.
.	.	.	4a/
.	.	.	4g/
1c	.	1e	1a
=293	=293	=293	=293
1.B-	0G	1.d	0b-
2G\	.	2B-\	.
1A	1F	1c	1r
=294	=294	=294	=294
1G	1G	1B-	0.r
1.D	1B-	1.F	.
.	1A	.	.
2C/	.	2E/	.
=295	=295	=295	=295
1BB-	1.G	0D	0.r
0AA	.	.	.
.	2E/	.	.
.	1F#i	1C	.
=296	=296	=296	=296
0GG	1G	1D	0g
.	1B-	1G	.
1r	1A	1D	1f
=297	=297	=297	=297
0G	1G	1.d	1g
.	1.d	.	1b-
.	.	2e\	.
1F	.	1f	1a
.	2c\	.	.
=298	=298	=298	=298
0G	2B-\	0d	1g
.	2A/	.	.
.	1B-	.	1.dd
[1B-	1G	[1g	.
.	.	.	2cc\
=299	=299	=299	=299
1B-]	1.d	1g]	2b-\
.	.	.	2a/
1G	.	1d	1b-
.	2B-\	.	.
1F	1c	1f	2.a/
.	.	.	4g/
=300	=300	=300	=300
1G	1B-	1e	1g
0D	0A	0d	1g
.	.	.	1f#i
=301	=301	=301	=301
0.E-i	0.G	0B-	0g
.	.	1c	1e
=302	=302	=302	=302
0.D;	0.A;	0.d;	0.f#i;
=303	=303	=303	=303
0.GGl	0.Gl	0.dl	0.gl
==	==	==	==
*-	*-	*-	*-
!!!RDF**kern: l=long note in original notation
!!!RDF**kern: i=editorial accidental
!!!ENC:	Chris Gage 10-16-2014
!!!END:	2014/10/25/
!!!EED:	Jesse Rodin
!!!EEV:	2015/03/09/
!!!ONB:	Translated from MusicXML and edited on 2015/03/09/ by Craig Sapp
!!muse2ps: T^@{OPR}^u^@{ONM}{. }@{OTL}^C^@{COM}^i2I150v85,85,85,150Q16
